X: 951
T: Paddy Mack
C: anon.
O: Ireland
B: Francis O'Neill: "The Dance Music of Ireland" (1907) no. 951
R: Hornpipe
Z: Transcribed by Frank Nordberg - http://www.musicaviva.com
F: http://www.musicaviva.com/abc/tunes/ireland/oneill-1001/oneill-1001-095
1.abc
M: C
L: 1/8
K: G
(DF)|G2(3GGG GBd(B|cd)ef g(fge)|d(BGB) d(BGB)|cAF(A cA)FA|G2(3GGG GBdB|cd
e(f gf)ge|dg(ed BG)A(F|G2)GFG2:|
|:(Bc)|d(BdB) GBdg|ece(c AB)cA|d(BdB) GBdB|A(GFE) D2(Bc)|d(BdB) GBdB|cde(
f gf)ge|dge(d B)GA(F|G2)GFG2:|
W:
W:
W: From Musica Viva - http://www.musicaviva.com
W: the Internet center for free sheet music downloads.


